X: 1254
T: Bridget McBride  #2
R: reel
B: O'Neill's 1850 #1254
O: Cronin
Z: Trish O'Neil
M: C|
L: 1/8
K: G
d |\
   gedc BGBd | cBcA ABcA |\
[2 B>G (3GGG GBdB | cBAG FGB :|\
[2 BcdB Bdeg | fdcA G2 |]
|: de |\
   fefg fedB | cBAG FGA \
[1 d | g2ga gfdg | fgaf g2 :|\
[2 c | BcdB cdeg | fdef g3 |]
